64x64/apps/config-users.svg

<svg height="64" width="64" xmlns="http://www.w3.org/2000/svg"><circle cx="32" cy="33" fill="#00100f" opacity=".2" r="28"/><circle cx="32" cy="32" fill="#009587" r="28"/><path d="m32 15a7 7 0 1 0 0 14 7 7 0 0 0 0-14zm0 19c-13.999.008-14 8.862-14 8.862v3.6s2.585 5.538 14 5.538 14-5.538 14-5.538v-3.6s0-8.868-13.997-8.862z" opacity=".2"/><g fill="#f4f4f7"><path d="m32 14a7 7 0 1 0 0 14 7 7 0 0 0 0-14zm0 19c-13.999.008-14 8.862-14 8.862v3.6s2.585 5.538 14 5.538 14-5.538 14-5.538v-3.6s0-8.868-13.997-8.862z"/><path d="m32 4a28 28 0 0 0 -28 28 28 28 0 0 0 .018.492 28 28 0 0 1 27.982-27.492 28 28 0 0 1 27.975 27.492 28 28 0 0 0 .025-.492 28 28 0 0 0 -28-28z" opacity=".2"/></g></svg>

<svg height="64" width="64" xmlns="http://www.w3.org/2000/svg">
    <circle cx="32" cy="33" fill="#00100f" opacity=".2" r="28"/>
    <circle cx="32" cy="32" fill="#009587" r="28"/>
    <path d="M32 15a7 7 0 1 0 0 14 7 7 0 0 0 0-14zm0 19c-13.999.008-14 8.862-14 8.862v3.6S20.585 52 32 52s14-5.538 14-5.538v-3.6S46 33.994 32.003 34z" opacity=".2"/>
    <g fill="#f4f4f7">
        <path d="M32 14a7 7 0 1 0 0 14 7 7 0 0 0 0-14zm0 19c-13.999.008-14 8.862-14 8.862v3.6S20.585 51 32 51s14-5.538 14-5.538v-3.6S46 32.994 32.003 33z"/>
        <path d="M32 4A28 28 0 0 0 4 32a28 28 0 0 0 .018.492A28 28 0 0 1 32 5a28 28 0 0 1 27.975 27.492A28 28 0 0 0 60 32 28 28 0 0 0 32 4z" opacity=".2"/>
    </g>
</svg>
